build/assets/images/infrastructure/it-kub.svg

<svg width="379" height="415" viewBox="0 0 379 415" fill="none" xmlns="http://www.w3.org/2000/svg">
<path d="M193.551 36.9858H186.484C185.886 36.9858 185.41 36.9858 185.445 36.51C185.627 35.9901 185.853 35.4866 186.12 35.0048C186.12 34.6934 186.597 34.529 187.151 34.529H192.875C193.069 34.5121 193.263 34.548 193.438 34.6328C193.609 34.7182 193.755 34.8463 193.862 35.0048C194.147 35.4838 194.388 35.9876 194.581 36.51C194.59 36.7523 194.114 36.9858 193.551 36.9858ZM208.316 29.2953C207.786 28.5543 207.072 27.9637 206.245 27.5815C205.417 27.1993 204.505 27.0387 203.596 27.1153H177.036C174.438 27.1153 173.07 27.8679 172.351 29.2953C171.066 31.5075 170.016 33.8471 169.216 36.2765C169.216 37.7471 171.32 38.4997 173.901 38.4997H206.662C209.26 38.4997 211.261 37.427 211.382 36.2765C210.599 33.8447 209.557 31.5042 208.273 29.2953" fill="#6E6E70"/>
<path d="M202.93 8.31705H187.922V6.6561H202.93V8.31705ZM202.93 11.8898H187.922V10.2202H202.93V11.8898ZM202.93 15.4539H187.922V13.793H202.93V15.4539ZM202.93 19.0267H177.816V17.3398H202.93V19.0267ZM177.677 6.6561H185.619V15.3761H177.677V6.6561ZM203.606 0.903354H177.045C176.426 0.900969 175.813 1.02459 175.244 1.26669C174.67 1.50185 174.149 1.84887 173.711 2.28747C173.277 2.72762 172.933 3.24762 172.698 3.81866C172.465 4.39249 172.35 5.00743 172.36 5.62667V20.4541C172.362 21.6938 172.857 22.882 173.735 23.7578C174.614 24.6336 175.804 25.1255 177.045 25.1255H203.606C204.224 25.1299 204.836 25.0122 205.408 24.7791C205.981 24.546 206.501 24.2021 206.94 23.7673C207.38 23.3327 207.731 22.8152 207.97 22.2448C208.204 21.6736 208.325 21.0625 208.325 20.4454V5.62667C208.326 5.00669 208.205 4.39259 207.97 3.81866C207.731 3.24566 207.38 2.72538 206.94 2.28747C206.507 1.84708 205.988 1.49971 205.416 1.26669C204.842 1.02708 204.227 0.903582 203.606 0.903354Z" fill="#6E6E70"/>
<path d="M193.551 233.523H186.484C185.886 233.523 185.41 233.523 185.445 233.048C185.625 232.527 185.851 232.023 186.12 231.542C186.12 231.222 186.597 231.067 187.151 231.067H192.875C193.068 231.051 193.261 231.084 193.438 231.162C193.612 231.247 193.759 231.379 193.862 231.542C194.157 232.016 194.398 232.521 194.581 233.048C194.59 233.281 194.114 233.523 193.551 233.523ZM208.325 225.824C207.804 225.071 207.093 224.468 206.265 224.078C205.436 223.687 204.518 223.523 203.605 223.601H177.036C174.438 223.601 173.07 224.397 172.351 225.824C171.066 228.033 170.016 230.37 169.216 232.797C169.216 234.224 171.32 234.985 173.901 234.985H206.662C209.26 234.985 211.261 233.913 211.382 232.797C210.599 230.368 209.557 228.03 208.273 225.824" fill="#6E6E70"/>
<path d="M202.93 204.81H187.922V203.149H202.93V204.81ZM202.93 208.383H187.922V206.713H202.93V208.383ZM202.93 211.947H187.922V210.251H202.93V211.947ZM202.93 215.52H177.816V213.85H202.93V215.52ZM177.677 203.149H185.619V211.869H177.677V203.149ZM203.605 197.431H177.045C176.43 197.431 175.821 197.552 175.252 197.787C174.684 198.022 174.167 198.367 173.732 198.802C173.297 199.236 172.952 199.752 172.717 200.32C172.481 200.888 172.36 201.496 172.36 202.111V216.947C172.35 217.563 172.465 218.175 172.698 218.746C172.931 219.318 173.275 219.839 173.711 220.277C174.151 220.716 174.671 221.066 175.244 221.307C175.815 221.542 176.427 221.663 177.045 221.662H203.605C204.226 221.664 204.841 221.543 205.414 221.307C205.988 221.071 206.509 220.724 206.948 220.286C207.387 219.848 207.734 219.327 207.971 218.754C208.207 218.181 208.328 217.567 208.325 216.947V202.111C208.325 201.493 208.203 200.882 207.965 200.312C207.728 199.742 207.38 199.224 206.941 198.789C206.502 198.354 205.981 198.01 205.409 197.777C204.837 197.544 204.224 197.426 203.605 197.431Z" fill="#6E6E70"/>
<path d="M193.551 412.601H186.484C185.886 412.601 185.41 412.601 185.445 412.125C185.627 411.605 185.853 411.102 186.12 410.62C186.12 410.309 186.597 410.144 187.151 410.144H192.875C193.069 410.127 193.263 410.163 193.438 410.248C193.609 410.334 193.755 410.462 193.862 410.62C194.147 411.099 194.388 411.603 194.581 412.125C194.59 412.368 194.114 412.601 193.551 412.601ZM208.325 404.893C207.796 404.149 207.083 403.553 206.257 403.164C205.43 402.774 204.517 402.604 203.605 402.67H177.036C174.438 402.67 173.07 403.466 172.351 404.893C171.066 407.106 170.016 409.445 169.216 411.875C169.216 413.302 171.32 414.098 173.901 414.098H206.662C209.26 414.098 211.261 413.025 211.382 411.875C210.599 409.443 209.557 407.102 208.273 404.893" fill="#6E6E70"/>
<path d="M202.93 383.933H187.922V382.272H202.93V383.933ZM202.93 387.506H187.922V385.958H202.93V387.506ZM202.93 391.07H187.922V389.409H202.93V391.07ZM202.93 394.643H177.816V392.973H202.93V394.643ZM177.677 382.272H185.619V390.992H177.677V382.272ZM203.605 376.52H177.045C176.426 376.517 175.813 376.641 175.244 376.883C174.67 377.118 174.149 377.465 173.711 377.904C173.277 378.344 172.933 378.864 172.698 379.435C172.465 380.006 172.35 380.618 172.36 381.234V396.07C172.36 396.685 172.481 397.293 172.717 397.861C172.952 398.429 173.297 398.945 173.732 399.38C174.167 399.814 174.684 400.159 175.252 400.394C175.821 400.629 176.43 400.75 177.045 400.75H203.605C204.223 400.755 204.836 400.637 205.408 400.404C205.981 400.171 206.501 399.827 206.94 399.392C207.38 398.958 207.731 398.44 207.97 397.87C208.204 397.298 208.325 396.687 208.325 396.07V381.234C208.327 380.615 208.206 380.002 207.968 379.43C207.73 378.858 207.38 378.339 206.94 377.904C206.505 377.463 205.987 377.114 205.415 376.874C204.84 376.641 204.226 376.521 203.605 376.52Z" fill="#6E6E70"/>
<path d="M24.3781 133.554H17.2682C16.714 133.554 16.2377 133.554 16.281 133.079C16.4451 132.549 16.6718 132.041 16.9564 131.565C16.9564 131.253 17.3894 131.089 17.9437 131.089H23.7026C23.8963 131.07 24.0913 131.106 24.2655 131.193C24.4379 131.28 24.5864 131.408 24.6985 131.565C24.9832 132.041 25.2099 132.549 25.374 133.079C25.374 133.312 24.9324 133.554 24.3781 133.554ZM39.1003 125.855C38.5817 125.109 37.8761 124.511 37.0539 124.123C36.2317 123.734 35.3218 123.568 34.4152 123.641H7.86336C5.26533 123.641 3.88838 124.428 3.17825 125.855C1.88859 128.071 0.82388 130.409 0 132.836C0 134.264 2.1044 135.016 4.7284 135.016H37.5588C40.1568 135.016 42.1659 133.944 42.2439 132.836C41.4695 130.397 40.4176 128.055 39.1089 125.855H39.1003Z" fill="#6E6E70"/>
<path d="M33.7462 104.876H18.7383V103.215H33.7462V104.876ZM33.7462 108.405H18.7383V106.779H33.7462V108.405ZM33.7462 111.978H18.7383V110.352H33.7462V111.978ZM33.7462 115.542H8.63196V113.881H33.7462V115.542ZM8.50206 103.215H16.4347V111.935H8.50206V103.215ZM34.4217 97.4619H7.86122C6.60806 97.4661 5.40702 97.9634 4.51842 98.846C3.63479 99.7337 3.13695 100.933 3.13281 102.185V117.013C3.13553 117.63 3.25909 118.242 3.49653 118.812C3.73614 119.382 4.08638 119.9 4.52709 120.334C4.9657 120.769 5.4861 121.113 6.05832 121.346C6.63054 121.579 7.24327 121.697 7.86122 121.693H34.4217C35.0376 121.695 35.6478 121.575 36.2173 121.341C36.7868 121.107 37.3042 120.762 37.7397 120.327C38.1752 119.892 38.5202 119.375 38.7548 118.806C38.9895 118.237 39.1091 117.628 39.1068 117.013V102.185C39.1124 101.566 38.9951 100.953 38.7617 100.38C38.5284 99.8065 38.1835 99.2852 37.7472 98.846C36.8655 97.9636 35.6698 97.4659 34.4217 97.4619Z" fill="#6E6E70"/>
<path d="M359.922 133.554H352.898C352.335 133.554 351.859 133.554 351.902 133.079C352.066 132.549 352.293 132.041 352.578 131.565C352.578 131.253 353.011 131.089 353.574 131.089H359.289C359.489 131.071 359.689 131.107 359.87 131.193C360.052 131.272 360.208 131.401 360.32 131.565C360.605 132.041 360.831 132.549 360.995 133.079C360.952 133.312 360.51 133.554 359.922 133.554ZM374.644 125.855C374.125 125.109 373.42 124.511 372.597 124.123C371.775 123.734 370.865 123.568 369.959 123.641H343.441C340.843 123.641 339.466 124.428 338.713 125.855C337.442 128.075 336.392 130.413 335.578 132.836C335.578 134.264 337.683 135.016 340.307 135.016H373.137C375.735 135.016 377.744 133.944 377.822 132.836C377.048 130.397 375.996 128.055 374.687 125.855H374.644Z" fill="#6E6E70"/>
<path d="M369.448 104.876H354.483V103.215H369.448V104.876ZM369.448 108.406H354.483V106.779H369.448V108.406ZM369.448 111.978H354.483V110.352H369.448V111.978ZM369.448 115.543H344.334V113.882H369.448V115.543ZM344.239 103.215H352.18V111.935H344.239V103.215ZM370.167 97.4625H343.598C342.345 97.4648 341.145 97.9634 340.26 98.8489C339.375 99.7345 338.878 100.935 338.878 102.186V117.013C338.882 118.26 339.38 119.454 340.264 120.335C340.704 120.768 341.225 121.112 341.796 121.347C342.367 121.582 342.98 121.7 343.598 121.693H370.167C371.409 121.693 372.601 121.2 373.48 120.322C374.358 119.445 374.852 118.254 374.852 117.013V102.186C374.857 101.567 374.74 100.953 374.507 100.38C374.273 99.807 373.929 99.2857 373.492 98.8466C373.057 98.3918 372.532 98.0323 371.951 97.7912C371.384 97.5648 370.777 97.4531 370.167 97.4625Z" fill="#6E6E70"/>
<path d="M24.3781 310.599H17.2682C16.714 310.599 16.2377 310.4 16.281 310.089C16.4544 309.576 16.6808 309.083 16.9564 308.618C16.9564 308.298 17.3894 308.142 17.9437 308.142H23.7026C23.8963 308.123 24.0913 308.159 24.2655 308.246C24.4413 308.328 24.5911 308.457 24.6985 308.618C24.9844 309.078 25.2114 309.572 25.374 310.089C25.374 310.374 24.9324 310.599 24.3781 310.599ZM39.1003 302.908C38.5868 302.159 37.8808 301.561 37.0565 301.178C36.2338 300.789 35.3223 300.624 34.4152 300.703H7.86336C5.26533 300.703 3.88838 301.455 3.17825 302.926C1.89844 305.125 0.834095 307.443 0 309.846C0 311.317 2.1044 312.07 4.7284 312.07H37.5588C40.1568 312.07 42.1659 310.997 42.2439 309.846C41.4612 307.427 40.4097 305.103 39.1089 302.917L39.1003 302.908Z" fill="#6E6E70"/>
<path d="M33.7462 282.053H18.7383V280.383H33.7462V282.053ZM33.7462 285.617H18.7383V283.956H33.7462V285.617ZM33.7462 289.19H18.7383V287.52H33.7462V289.19ZM33.7462 292.763H8.63196V291.093H33.7462V292.763ZM8.50206 280.383H16.4347V289.112H8.50206V280.383ZM34.4217 274.674H7.86122C7.24401 274.672 6.63223 274.789 6.05992 275.02C5.48601 275.251 4.96466 275.595 4.52709 276.032C4.08638 276.467 3.73614 276.984 3.49653 277.555C3.25994 278.125 3.13642 278.736 3.13281 279.354V294.164C3.13642 294.782 3.25994 295.393 3.49653 295.963C3.73297 296.536 4.08024 297.056 4.51842 297.495C4.95534 297.936 5.47607 298.286 6.05009 298.523C6.6241 298.761 7.23985 298.882 7.86122 298.879H34.4217C35.6698 298.875 36.8655 298.377 37.7472 297.495C38.1825 297.056 38.5267 296.537 38.7601 295.965C38.9934 295.393 39.1112 294.781 39.1068 294.164V279.363C39.1068 278.748 38.9856 278.139 38.7502 277.572C38.5147 277.004 38.1696 276.488 37.7346 276.053C37.2995 275.619 36.783 275.274 36.2146 275.039C35.6462 274.804 35.0369 274.683 34.4217 274.683V274.674Z" fill="#6E6E70"/>
<path d="M360.23 310.601H353.164C352.566 310.601 352.099 310.402 352.133 310.091C352.323 309.585 352.549 309.094 352.809 308.62C352.809 308.3 353.285 308.145 353.839 308.145H359.555C359.749 308.126 359.944 308.162 360.118 308.248C360.297 308.325 360.448 308.455 360.551 308.62C360.837 309.08 361.064 309.574 361.226 310.091C361.226 310.376 360.793 310.601 360.23 310.601ZM375.004 302.911C374.483 302.156 373.771 301.553 372.94 301.162C372.11 300.772 371.191 300.608 370.276 300.688H343.716C341.118 300.688 339.749 301.44 339.03 302.911C337.751 305.104 336.7 307.423 335.896 309.831C335.896 311.302 338 312.055 340.581 312.055H373.42C376.018 312.055 378.018 310.982 378.139 309.831C377.338 307.425 376.287 305.108 375.004 302.919V302.911Z" fill="#6E6E70"/>
<path d="M369.448 282.053H354.44V280.384H369.448V282.053ZM369.448 285.617H354.44V283.956H369.448V285.617ZM369.448 289.19H354.44V287.52H369.448V289.19ZM369.448 292.763H344.334V291.093H369.448V292.763ZM344.239 280.392H352.18V289.121H344.239V280.392ZM370.167 274.683H343.563C342.948 274.683 342.339 274.804 341.77 275.039C341.202 275.274 340.685 275.619 340.25 276.053C339.815 276.488 339.47 277.004 339.235 277.572C338.999 278.14 338.878 278.748 338.878 279.363V294.164C338.874 294.781 338.991 295.394 339.225 295.965C339.458 296.537 339.802 297.057 340.238 297.495C341.119 298.377 342.315 298.875 343.563 298.879H370.124C371.376 298.879 372.578 298.382 373.464 297.498C374.351 296.615 374.85 295.415 374.852 294.164V279.363C374.853 278.745 374.729 278.133 374.488 277.563C374.252 276.993 373.904 276.476 373.466 276.041C372.576 275.164 371.374 274.676 370.124 274.683H370.167Z" fill="#6E6E70"/>
<path d="M22.197 145.128H18.5078V270.201H22.197V145.128Z" fill="#1F75BA"/>
<path d="M359.921 139.264H356.223V270.245H359.921V139.264Z" fill="#1F75BA"/>
<path d="M192.73 55.1963H189.032V186.177H192.73V55.1963Z" fill="#1F75BA"/>
<path d="M224.937 31.7354L223.101 34.9361L321.826 91.2958L323.661 88.095L224.937 31.7354Z" fill="#1F75BA"/>
<path d="M45.5451 324.502L43.7178 327.703L155.225 391.364L157.061 388.163L45.5451 324.502Z" fill="#1F75BA"/>
<path d="M226.895 232.233L225.059 235.434L323.203 291.456L325.031 288.256L226.895 232.233Z" fill="#1F75BA"/>
<path d="M331.041 326.226L221.447 389.471L223.292 392.663L332.885 329.418L331.041 326.226Z" fill="#1F75BA"/>
<path d="M158.185 231.931L48.583 295.185L50.4363 298.377L160.03 235.123L158.185 231.931Z" fill="#1F75BA"/>
<path d="M153.94 31.6562L51.9678 90.2478L53.8037 93.4399L155.776 34.857L153.94 31.6562Z" fill="#1F75BA"/>
<path d="M170.933 345.203C171.123 348.057 167.954 352.184 162.749 355.393C156.895 359.018 150.183 361.025 143.298 361.211C136.414 361.396 129.603 359.753 123.562 356.449C112.919 350.185 111.291 340.99 124.428 332.858C129.153 329.991 134.5 328.306 140.016 327.944L142.476 334.086C138.897 334.526 135.45 335.704 132.352 337.547C126.472 341.197 125.563 346.466 132.828 350.748C136.339 352.662 140.291 353.623 144.289 353.533C148.288 353.444 152.192 352.307 155.613 350.237C158.28 348.803 160.297 346.405 161.251 343.533L170.933 345.203Z" fill="#6E6E70"/>
<path d="M197.329 315.134C208.587 321.795 205.746 329.087 197.528 334.165C192.646 337.319 186.982 339.053 181.17 339.172C175.357 339.291 169.627 337.791 164.62 334.84L143.143 322.227L151.881 316.829L171.409 328.369C173.985 330.294 177.068 331.424 180.279 331.622C183.49 331.821 186.689 331.078 189.483 329.485C194.8 326.233 192.618 323.058 186.737 319.528L166.88 307.599L175.609 302.244L197.329 315.134Z" fill="#6E6E70"/>
<path d="M215.715 304.224L222.643 308.195C223.783 307.77 224.875 307.225 225.899 306.569C229.311 304.467 229.554 302.598 227.085 301.136C225.814 300.522 224.395 300.278 222.991 300.431C221.586 300.584 220.254 301.128 219.144 302.001L215.715 304.224ZM201.616 295.894L208.293 299.856L211.229 298.074C213.454 296.681 214.364 295.055 211.662 293.472C210.457 292.917 209.13 292.685 207.808 292.797C206.487 292.912 205.217 293.361 204.119 294.103C203.252 294.654 202.417 295.252 201.616 295.894ZM185.023 296.646C187.05 295.297 192.168 291.888 196.342 289.345C205.47 283.714 213.255 283.835 218.373 286.845C222.348 289.146 223.258 291.612 222.348 294.423C224.656 293.757 227.073 293.557 229.458 293.835C231.845 294.111 234.151 294.864 236.239 296.05C244.18 300.652 241.435 306.638 233.104 311.915C229.415 314.173 224.21 317.227 221.751 318.498L185.023 296.646Z" fill="#6E6E70"/>
<path d="M218.668 275.833L241.418 261.879L249.316 266.55L235.373 275.132L241.877 278.938L254.174 271.429L262.072 276.075L249.766 283.644L256.478 287.615L270.966 278.687L278.907 283.367L255.638 297.684L218.668 275.833Z" fill="#6E6E70"/>
<path d="M113.274 122.921V89.7285L83.9766 106.165L113.274 122.921Z" fill="#6E6E70"/>
<path d="M81.3965 109.833V246.921L113.274 229.04V128.069L81.3965 109.833Z" fill="#1F75BA"/>
<path d="M258.034 223.33L287.019 239.862V141.364L258.034 157.619V223.33Z" fill="#1F75BA"/>
<path d="M225.76 72.8779V101.149L258.036 119.67V152.785L287.021 136.21L299.726 143.468L324.701 129.463L225.76 72.8779Z" fill="#6E6E70"/>
<path d="M304.013 145.925L325.057 157.941V134.125L304.013 145.925Z" fill="#1F75BA"/>
</svg>

<svg width="379" height="415" fill="none" xmlns="http://www.w3.org/2000/svg"><path d="M193.551 36.986h-7.067c-.598 0-1.074 0-1.039-.476.182-.52.408-1.023.675-1.505 0-.312.477-.476 1.031-.476h5.724a1.075 1.075 0 01.987.476c.285.479.526.983.719 1.505.009.242-.467.476-1.03.476zm14.765-7.69a5.259 5.259 0 00-4.72-2.18h-26.56c-2.598 0-3.966.752-4.685 2.18a36.835 36.835 0 00-3.135 6.98c0 1.471 2.104 2.224 4.685 2.224h32.761c2.598 0 4.599-1.073 4.72-2.224a35.605 35.605 0 00-3.109-6.98M202.93 8.317h-15.008v-1.66h15.008v1.66zm0 3.573h-15.008v-1.67h15.008v1.67zm0 3.564h-15.008v-1.661h15.008v1.66zm0 3.573h-25.114V17.34h25.114v1.687zm-25.253-12.37h7.942v8.72h-7.942v-8.72zM203.606.902h-26.561a4.556 4.556 0 00-1.801.364 4.666 4.666 0 00-1.533 1.02c-.434.44-.778.96-1.013 1.532a4.608 4.608 0 00-.338 1.808v14.827a4.678 4.678 0 001.375 3.304 4.69 4.69 0 003.31 1.367h26.561a4.685 4.685 0 003.334-1.358c.44-.434.791-.952 1.03-1.522a4.747 4.747 0 00.355-1.8V5.627a4.751 4.751 0 00-.355-1.808 4.733 4.733 0 00-1.03-1.532 4.54 4.54 0 00-1.524-1.02 4.703 4.703 0 00-1.81-.364zm-10.055 232.621h-7.067c-.598 0-1.074 0-1.039-.475.18-.521.406-1.025.675-1.506 0-.32.477-.475 1.031-.475h5.724c.193-.016.386.017.563.095.174.085.321.217.424.38.295.474.536.979.719 1.506.009.233-.467.475-1.03.475zm14.774-7.699a5.202 5.202 0 00-4.72-2.223h-26.569c-2.598 0-3.966.796-4.685 2.223a36.74 36.74 0 00-3.135 6.973c0 1.427 2.104 2.188 4.685 2.188h32.761c2.598 0 4.599-1.072 4.72-2.188a35.533 35.533 0 00-3.109-6.973m-5.343-21.014h-15.008v-1.661h15.008v1.661zm0 3.573h-15.008v-1.67h15.008v1.67zm0 3.564h-15.008v-1.696h15.008v1.696zm0 3.573h-25.114v-1.67h25.114v1.67zm-25.253-12.371h7.942v8.72h-7.942v-8.72zm25.928-5.718h-26.56a4.696 4.696 0 00-3.313 1.371 4.665 4.665 0 00-1.372 3.309v14.836c-.01.616.105 1.228.338 1.799a4.664 4.664 0 001.013 1.531c.44.439.96.789 1.533 1.03a4.713 4.713 0 001.801.355h26.56a4.711 4.711 0 004.366-2.908 4.686 4.686 0 00.354-1.807v-14.836a4.667 4.667 0 00-1.384-3.322 4.692 4.692 0 00-3.336-1.358zm-10.054 215.17h-7.067c-.598 0-1.074 0-1.039-.476.182-.52.408-1.023.675-1.505 0-.311.477-.476 1.031-.476h5.724a1.073 1.073 0 01.987.476c.285.479.526.983.719 1.505.009.243-.467.476-1.03.476zm14.774-7.708a5.32 5.32 0 00-4.72-2.223h-26.569c-2.598 0-3.966.796-4.685 2.223a36.848 36.848 0 00-3.135 6.982c0 1.427 2.104 2.223 4.685 2.223h32.761c2.598 0 4.599-1.073 4.72-2.223a35.61 35.61 0 00-3.109-6.982m-5.343-20.96h-15.008v-1.661h15.008v1.661zm0 3.573h-15.008v-1.548h15.008v1.548zm0 3.564h-15.008v-1.661h15.008v1.661zm0 3.573h-25.114v-1.67h25.114v1.67zm-25.253-12.371h7.942v8.72h-7.942v-8.72zm25.928-5.752h-26.56a4.546 4.546 0 00-1.801.363 4.658 4.658 0 00-1.533 1.021 4.76 4.76 0 00-1.013 1.531 4.566 4.566 0 00-.338 1.799v14.836a4.677 4.677 0 004.685 4.68h26.56a4.68 4.68 0 003.335-1.358c.44-.434.791-.952 1.03-1.522a4.753 4.753 0 00.355-1.8v-14.836a4.655 4.655 0 00-1.385-3.33 4.686 4.686 0 00-1.525-1.03 4.838 4.838 0 00-1.81-.354zM24.378 133.554h-7.11c-.554 0-1.03 0-.987-.475.164-.53.39-1.038.675-1.514 0-.312.433-.476.988-.476h5.759c.193-.019.388.017.563.104.172.087.32.215.433.372.284.476.51.984.675 1.514 0 .233-.442.475-.996.475zm14.722-7.699a5.192 5.192 0 00-4.685-2.214H7.863c-2.598 0-3.975.787-4.685 2.214A38.45 38.45 0 000 132.836c0 1.428 2.104 2.18 4.728 2.18h32.83c2.599 0 4.608-1.072 4.686-2.18a33.46 33.46 0 00-3.135-6.981H39.1zm-5.354-20.979H18.738v-1.661h15.008v1.661zm0 3.529H18.738v-1.626h15.008v1.626zm0 3.573H18.738v-1.626h15.008v1.626zm0 3.564H8.632v-1.661h25.114v1.661zM8.502 103.215h7.933v8.72H8.502v-8.72zm25.92-5.753H7.862a4.766 4.766 0 00-3.344 1.384 4.755 4.755 0 00-1.385 3.339v14.828a4.684 4.684 0 001.394 3.321 4.682 4.682 0 003.334 1.359h26.56a4.685 4.685 0 003.319-1.366 4.66 4.66 0 001.367-3.314v-14.828a4.67 4.67 0 00-1.36-3.339 4.723 4.723 0 00-3.325-1.384zm325.5 36.092h-7.024c-.563 0-1.039 0-.996-.475a6.94 6.94 0 01.676-1.514c0-.312.433-.476.996-.476h5.715c.2-.018.4.018.581.104.182.079.338.208.45.372.285.476.511.984.675 1.514-.043.233-.485.475-1.073.475zm14.722-7.699a5.193 5.193 0 00-4.685-2.214h-26.518c-2.598 0-3.975.787-4.728 2.214a39.131 39.131 0 00-3.135 6.981c0 1.428 2.105 2.18 4.729 2.18h32.83c2.598 0 4.607-1.072 4.685-2.18a33.424 33.424 0 00-3.135-6.981h-.043zm-5.196-20.979h-14.965v-1.661h14.965v1.661zm0 3.53h-14.965v-1.627h14.965v1.627zm0 3.572h-14.965v-1.626h14.965v1.626zm0 3.565h-25.114v-1.661h25.114v1.661zm-25.209-12.328h7.941v8.72h-7.941v-8.72zm25.928-5.752h-26.569a4.73 4.73 0 00-3.338 1.386 4.721 4.721 0 00-1.382 3.337v14.827a4.71 4.71 0 001.386 3.322c.44.433.961.777 1.532 1.012a4.599 4.599 0 001.802.346h26.569a4.678 4.678 0 004.685-4.68v-14.827a4.68 4.68 0 00-1.36-3.34 4.542 4.542 0 00-1.541-1.055 4.621 4.621 0 00-1.784-.328zM24.378 310.599h-7.11c-.554 0-1.03-.199-.987-.51.173-.513.4-1.006.675-1.471 0-.32.433-.476.988-.476h5.759c.193-.019.388.017.563.104.175.082.325.211.433.372.285.46.512.954.675 1.471 0 .285-.442.51-.996.51zm14.722-7.691a5.068 5.068 0 00-2.044-1.73 5.137 5.137 0 00-2.64-.475H7.862c-2.598 0-3.975.752-4.685 2.223A39.525 39.525 0 000 309.846c0 1.471 2.104 2.224 4.728 2.224h32.83c2.599 0 4.608-1.073 4.686-2.224a34.045 34.045 0 00-3.135-6.929l-.009-.009zm-5.354-20.855H18.738v-1.67h15.008v1.67zm0 3.564H18.738v-1.661h15.008v1.661zm0 3.573H18.738v-1.67h15.008v1.67zm0 3.573H8.632v-1.67h25.114v1.67zm-25.244-12.38h7.933v8.729H8.502v-8.729zm25.92-5.709H7.862a4.77 4.77 0 00-1.802.346 4.599 4.599 0 00-1.533 1.012c-.44.435-.79.952-1.03 1.523a4.765 4.765 0 00-.364 1.799v14.81a4.765 4.765 0 001.385 3.331 4.67 4.67 0 003.343 1.384h26.56a4.724 4.724 0 003.326-1.384 4.687 4.687 0 001.36-3.331v-14.801a4.672 4.672 0 00-1.372-3.31 4.691 4.691 0 00-3.313-1.37v-.009zm325.808 35.927h-7.066c-.598 0-1.065-.199-1.031-.51.19-.506.416-.997.676-1.471 0-.32.476-.475 1.03-.475h5.716c.194-.019.389.017.563.103.179.077.33.207.433.372.286.46.513.954.675 1.471 0 .285-.433.51-.996.51zm14.774-7.69a5.192 5.192 0 00-4.728-2.223h-26.56c-2.598 0-3.967.752-4.686 2.223a36.992 36.992 0 00-3.134 6.92c0 1.471 2.104 2.224 4.685 2.224h32.839c2.598 0 4.598-1.073 4.719-2.224a36.424 36.424 0 00-3.135-6.912v-.008zm-5.556-20.858H354.44v-1.669h15.008v1.669zm0 3.564H354.44v-1.661h15.008v1.661zm0 3.573H354.44v-1.67h15.008v1.67zm0 3.573h-25.114v-1.67h25.114v1.67zm-25.209-12.371h7.941v8.729h-7.941v-8.729zm25.928-5.709h-26.604a4.696 4.696 0 00-3.313 1.37 4.677 4.677 0 00-1.372 3.31v14.801a4.671 4.671 0 001.36 3.331 4.722 4.722 0 003.325 1.384h26.561a4.73 4.73 0 004.728-4.715v-14.801a4.603 4.603 0 00-.364-1.8 4.657 4.657 0 00-1.022-1.522 4.723 4.723 0 00-3.342-1.358h.043z" fill="#6E6E70"/><path d="M22.197 145.128h-3.69v125.073h3.69V145.128zm337.724-5.864h-3.698v130.981h3.698V139.264zM192.73 55.196h-3.698v130.981h3.698V55.197zm32.207-23.461l-1.836 3.201 98.725 56.36 1.835-3.201-98.724-56.36zM45.545 324.502l-1.827 3.201 111.507 63.661 1.836-3.201-111.516-63.661zm181.35-92.269l-1.836 3.201 98.144 56.022 1.828-3.2-98.136-56.023zm104.146 93.993l-109.594 63.245 1.845 3.192 109.593-63.245-1.844-3.192zm-172.856-94.295L48.583 295.185l1.853 3.192 109.594-63.254-1.845-3.192zM153.94 31.656L51.968 90.248l1.836 3.192 101.972-58.583-1.836-3.2z" fill="#1F75BA"/><path d="M170.933 345.203c.19 2.854-2.979 6.981-8.184 10.19a38.943 38.943 0 01-39.187 1.056c-10.643-6.264-12.271-15.459.866-23.591a34.39 34.39 0 0115.588-4.914l2.46 6.142a26.006 26.006 0 00-10.124 3.461c-5.88 3.65-6.789 8.919.476 13.201a22.871 22.871 0 0022.785-.511 11.855 11.855 0 005.638-6.704l9.682 1.67zm26.396-30.069c11.258 6.661 8.417 13.953.199 19.031a31.327 31.327 0 01-32.908.675l-21.477-12.613 8.738-5.398 19.528 11.54a16.515 16.515 0 008.87 3.253 16.52 16.52 0 009.204-2.137c5.317-3.252 3.135-6.427-2.746-9.957l-19.857-11.929 8.729-5.355 21.72 12.89zm18.386-10.91l6.928 3.971c1.14-.425 2.232-.97 3.256-1.626 3.412-2.102 3.655-3.971 1.186-5.433a7.536 7.536 0 00-7.941.865l-3.429 2.223zm-14.099-8.33l6.677 3.962 2.936-1.782c2.225-1.393 3.135-3.019.433-4.602a7.663 7.663 0 00-3.854-.675 7.796 7.796 0 00-3.689 1.306 28.11 28.11 0 00-2.503 1.791zm-16.593.752c2.027-1.349 7.145-4.758 11.319-7.301 9.128-5.631 16.913-5.51 22.031-2.5 3.975 2.301 4.885 4.767 3.975 7.578a18.09 18.09 0 017.11-.588 17.889 17.889 0 016.781 2.215c7.941 4.602 5.196 10.588-3.135 15.865-3.689 2.258-8.894 5.312-11.353 6.583l-36.728-21.852zm33.645-20.813l22.75-13.954 7.898 4.671-13.943 8.582 6.504 3.806 12.297-7.509 7.898 4.646-12.306 7.569 6.712 3.971 14.488-8.928 7.941 4.68-23.269 14.317-36.97-21.851zM113.274 122.921V89.728l-29.297 16.437 29.297 16.756z" fill="#6E6E70"/><path d="M81.397 109.833v137.088l31.877-17.881V128.069l-31.877-18.236zM258.034 223.33l28.985 16.532v-98.498l-28.985 16.255v65.711z" fill="#1F75BA"/><path d="M225.76 72.878v28.271l32.276 18.521v33.115l28.985-16.575 12.705 7.258 24.975-14.005-98.941-56.585z" fill="#6E6E70"/><path d="M304.013 145.925l21.044 12.016v-23.816l-21.044 11.8z" fill="#1F75BA"/></svg>
